flags/it-82.svg

<svg width="512" height="512" viewBox="0 0 512 512" fill="none" xmlns="http://www.w3.org/2000/svg">
<path d="M-2.23802e-05 -0.000305176L512 -0.000327556L512 512L-6.8299e-10 511.984L-2.23802e-05 -0.000305176Z" fill="var(--flag-palette-bright-red, #d80027)"/>
<path d="M512 512L6.71407e-05 512L0 6.71407e-05L512 512Z" fill="var(--flag-palette-yellow, #ffda44)"/>
<g clip-path="url(#clip0_50_1376)">
<path d="M403.4 160L365.6 193.7L387.2 288.1C388.421 293.361 388.189 298.855 386.53 303.994C384.871 309.134 381.846 313.726 377.779 317.279C373.712 320.833 368.756 323.214 363.44 324.169C358.124 325.124 352.649 324.616 347.6 322.7L347 322.4L256 287.4L196.2 312.6L189.9 315.2L196.4 318.5L277.6 358.3L271.6 424.3L271.5 426.3C271.303 427.022 270.965 427.699 270.507 428.291C270.049 428.883 269.478 429.378 268.828 429.75C268.178 430.121 267.461 430.361 266.719 430.455C265.976 430.55 265.222 430.497 264.5 430.3C263.777 430.103 263.101 429.766 262.509 429.307C261.917 428.849 261.421 428.278 261.05 427.628C260.678 426.978 260.439 426.262 260.344 425.519C260.25 424.776 260.303 424.022 260.5 423.3L250.5 373.8L157.9 345.3C152.706 343.761 148.032 340.831 144.384 336.827C140.736 332.823 138.252 327.897 137.201 322.583C136.151 317.269 136.574 311.769 138.424 306.678C140.275 301.587 143.482 297.099 147.7 293.7L148.2 293.3L224 232L232.1 167.6L233 160.8L226.9 164.8L151.9 215.3L97.4997 177L95.9997 176C95.3628 175.503 94.8387 174.877 94.4621 174.163C94.0856 173.448 93.8652 172.662 93.8155 171.856C93.7658 171.05 93.888 170.242 94.1739 169.487C94.4599 168.732 94.9031 168.046 95.4742 167.475C96.0453 166.903 96.7312 166.46 97.4865 166.174C98.2418 165.888 99.0493 165.766 99.8554 165.816C100.661 165.866 101.448 166.086 102.162 166.462C102.877 166.839 103.503 167.363 104 168L152 184L223 118.1C226.934 114.395 231.804 111.834 237.086 110.692C242.367 109.55 247.861 109.871 252.974 111.62C258.087 113.369 262.626 116.48 266.102 120.617C269.578 124.755 271.859 129.762 272.7 135.1V135.7L288 232L339.7 271.2L345.2 275.4L344.7 268.1L338.6 177.8L398.8 149.9L400.5 149.2C401.247 148.886 402.052 148.735 402.863 148.758C403.673 148.78 404.469 148.974 405.198 149.329C405.927 149.683 406.572 150.188 407.09 150.812C407.608 151.435 407.987 152.162 408.202 152.943C408.417 153.724 408.463 154.543 408.337 155.343C408.211 156.144 407.915 156.908 407.47 157.585C407.025 158.263 406.441 158.837 405.756 159.271C405.072 159.705 404.302 159.987 403.5 160.1L403.4 160Z" fill="var(--flag-palette-white, #eeeeee)"/>
<path d="M281.2 307.2C273.342 295.48 269.613 281.476 270.6 267.4C314.6 247.1 337.2 196.4 321.3 149.4L291 159.7C295.983 174.431 295.433 190.472 289.452 204.826C283.471 219.181 272.468 230.867 258.5 237.7C239.145 224.07 215.44 218.064 191.93 220.832C168.42 223.6 146.759 234.948 131.1 252.7L155.1 273.9C165.292 262.148 179.438 254.538 194.861 252.511C210.285 250.484 225.917 254.18 238.8 262.9C236.764 284.77 242.346 306.672 254.6 324.9C261.551 335.428 270.522 344.473 280.993 351.511C291.463 358.548 303.226 363.439 315.6 365.9L321.9 334.4C313.655 332.78 305.814 329.542 298.828 324.873C291.842 320.204 285.851 314.198 281.2 307.2Z" fill="var(--flag-palette-gold, #ff9811)"/>
</g>
<defs>
<clipPath id="clip0_50_1376">
<rect width="512" height="512" fill="white"/>
</clipPath>
</defs>
</svg>

<svg xmlns="http://www.w3.org/2000/svg" width="512" height="512" fill="none"><path fill="var(--flag-palette-bright-red, #d80027)" d="M0 0h512v512H0z"/><path fill="var(--flag-palette-yellow, #ffda44)" d="M512 512H0V0z"/><g clip-path="url(#a)"><path fill="var(--flag-palette-white, #eeeeee)" d="m403.4 160-37.8 33.7 21.6 94.4a29.8 29.8 0 0 1-39.6 34.6l-.6-.3-91-35-59.8 25.2-6.3 2.6 6.5 3.3 81.2 39.8-6 66-.1 2a5.7 5.7 0 0 1-11-3l-10-49.5-92.6-28.5a29.7 29.7 0 0 1-10.2-51.6l.5-.4L224 232l8.1-64.4.9-6.8-6.1 4-75 50.5L97.5 177l-1.5-1a5.7 5.7 0 1 1 8-8l48 16 71-65.9a29.7 29.7 0 0 1 49.7 17v.6L288 232l51.7 39.2 5.5 4.2-.5-7.3-6.1-90.3 60.2-27.9 1.7-.7a5.7 5.7 0 0 1 7.8 6.1 6 6 0 0 1-4.8 4.8z"/><path fill="var(--flag-palette-gold, #ff9811)" d="M281.2 307.2a64 64 0 0 1-10.6-39.8c44-20.3 66.6-71 50.7-118L291 159.7a64 64 0 0 1-32.5 78 96 96 0 0 0-127.4 15l24 21.2a63.6 63.6 0 0 1 83.7-11 95 95 0 0 0 15.8 62 95 95 0 0 0 61 41l6.3-31.5a64 64 0 0 1-40.7-27.2"/></g><defs><clipPath id="a"><path fill="#fff" d="M0 0h512v512H0z"/></clipPath></defs></svg>
